X: 50
T: On a grant mal / On est bien malade
N: Derived from Bus3046-On_a_grant_mal__On_est_bien_malade.krn
C: Antoine Busnoys
%%abc-version 2.0
%%abcx-abcm2ps-target-version 5.9.1 (29 Sep 2008)
%%abc-creator hum2abc beta
%%abcx-conversion-date 2019/02/16 20:26:07
%%abc-edited-by Jesse Rodin
%%abc-edited-by Chris Gage 04-15-2015
%%abcx-initial-encoding-date 2015/05/12/
%%humdrum-veritas 1922061550
%%humdrum-veritas-data 3445308972
%%linebreak <none>
%%barnumbers 0
L: 1/4
M: 2/1
Q: 1/2=120
%%staves [1 2 3 4]
V: 1 clef=treble
V: 2 clef=treble-8
V: 3 clef=treble-8
V: 4 clef=bass
K: F
[V:1] G4A4 | 
[V:2] c4c4 | 
[V:3] z8 | 
[V:4] z8 | 
[V:1] =B4B4 | 
[V:2] d4e4 | 
[V:3] G4G4 | 
[V:4] z8 | 
[V:1] A2c4=BA | 
[V:2] f4e2d2 | 
[V:3] A4=B4 | 
[V:4] z8 | 
[V:1] G2A3=BG2 | 
[V:2] e8 | 
[V:3] c6=B2 | 
[V:4] C,4C,4 | 
[V:1] F4G4 | 
[V:2] z8 | 
[V:3] A4G4 | 
[V:4] D,4E,4 | 
[V:1] F4F4 | 
[V:2] z8 | 
[V:3] A4A4 | 
[V:4] F,4E,2D,2 | 
[V:1] G6FE | 
[V:2] z4e4 | 
[V:3] G8 | 
[V:4] E,4D,2C,2 | 
[V:1] D4D4 | 
[V:2] f4e2d2 | 
[V:3] z8 | 
[V:4] B,,4B,,4 | 
[V:1] G,2C3=B,C2 | 
[V:2] e4d2c2 | 
[V:3] z4G4- | 
[V:4] C,4E,4 | 
[V:1] D2F4ED | 
[V:2] B4B4 | 
[V:3] G4F4 | 
[V:4] D,8 | 
[V:1] E8 | 
[V:2] c6g2- | 
[V:3] G8 | 
[V:4] C,8- | 
[V:1] z4c4 | 
[V:2] g2fga3g | 
[V:3] z8 | 
[V:4] C,8 | 
[V:1] =B4A4 | 
[V:2] e3de3f | 
[V:3] z4c4 | 
[V:4] z8 | 
[V:1] G4c4 | 
[V:2] d2g4^f2 | 
[V:3] =B4A4 | 
[V:4] z8 | 
[V:1] =B3GA4- | 
[V:2] g6fe | 
[V:3] G4c4 | 
[V:4] z8 | 
[V:1] A2G4F2 | 
[V:2] d4z4 | 
[V:3] =B3GA4 | 
[V:4] z4F,4 | 
[V:1] G2C3=B,B,A, | 
[V:2] z4f4 | 
[V:3] G4z4 | 
[V:4] E,4D,4 | 
[V:1] C4z4 | 
[V:2] e4d4 | 
[V:3] x4A4 | 
[V:4] C,4F,4 | 
[V:1] z8 | 
[V:2] c4f4 | 
[V:3] G2c4=B2 | 
[V:4] E,3C,D,4 | 
[V:1] G3A=B2AB | 
[V:2] e3cd4 | 
[V:3] c4z4 | 
[V:4] C,4G,4 | 
[V:1] c6A2- | 
[V:2] c4f4 | 
[V:3] A8 | 
[V:4] A,4F,4 | 
[V:1] A2G2G2F2 | 
[V:2] e4d2d2- | 
[V:3] B4B4 | 
[V:4] G,8 | 
[V:1] A8 | 
[V:2] d2cBA4 | 
[V:3] A4F4 | 
[V:4] D,8 | 
[V:1] B4A4 | 
[V:2] G4z2c2 | 
[V:3] G4A4 | 
[V:4] z8 | 
[V:1] F4G4 | 
[V:2] B2d4e2 | 
[V:3] B6AG | 
[V:4] z4G,4 | 
[V:1] A4A4 | 
[V:2] f6e2 | 
[V:3] F8 | 
[V:4] D,4D,4 | 
[V:1] B6AG | 
[V:2] d2d4cB | 
[V:3] z8 | 
[V:4] G,8 | 
[V:1] F8 | 
[V:2] A4B2d2- | 
[V:3] z8 | 
[V:4] D,8 | 
[V:1] z4G4 | 
[V:2] d2c2c2B2 | 
[V:3] G6FG | 
[V:4] _E,4E,4 | 
[V:1] F4E2D2 | 
[V:2] d8 | 
[V:3] A2F3DG2- | 
[V:4] D,4B,,4 | 
[V:1] C4F4 | 
[V:2] e4d4 | 
[V:3] GEA4GF | 
[V:4] C,4D,4 | 
[V:1] G6A2 | 
[V:2] B4c4 | 
[V:3] _E2G4F_E | 
[V:4] _E,6D,C, | 
[V:1] B3AG3F | 
[V:2] d4d4 | 
[V:3] D2C2D4 | 
[V:4] B,,8 | 
[V:1] G2G4FE | 
[V:2] _e6dc | 
[V:3] C8 | 
[V:4] z4C,4 | 
[V:1] D4z4 | 
[V:2] B8 | 
[V:3] z8 | 
[V:4] G,8 | 
[V:1] G4A4 | 
[V:2] c4c4 | 
[V:3] z8 | 
[V:4] C,8 | 
[V:1] B4B4 | 
[V:2] d4e4 | 
[V:3] G4G4 | 
[V:4] G,,8 | 
[V:1] A6G2 | 
[V:2] f4e2d2 | 
[V:3] A4=B4 | 
[V:4] z8 | 
[V:1] G6E2 | 
[V:2] e8 | 
[V:3] c6=B2 | 
[V:4] C,4C,4 | 
[V:1] F4G4 | 
[V:2] z8 | 
[V:3] A4G4 | 
[V:4] D,4E,4 | 
[V:1] F4F4 | 
[V:2] z8 | 
[V:3] A4A4 | 
[V:4] F,4E,2D,2 | 
[V:1] G6FE | 
[V:2] z4e4 | 
[V:3] G8 | 
[V:4] E,4D,2C,2 | 
[V:1] D6C2 | 
[V:2] f4e2d2 | 
[V:3] z8 | 
[V:4] B,,4B,,4 | 
[V:1] C6G2- | 
[V:2] e4d2c2 | 
[V:3] z4G4- | 
[V:4] C,4E,4 | 
[V:1] G2FEF2ED | 
[V:2] B4B4 | 
[V:3] G4F4 | 
[V:4] D,8 | 
[V:1] E4D2G2- | 
[V:2] c4d4- | 
[V:3] G4=B4 | 
[V:4] C,4G,,4 | 
[V:1] G2^F2F2E2 | 
[V:2] d2c2A4 | 
[V:3] A8 | 
[V:4] D,8 | 
[V:1] G8 |]  
[V:2] [=B8d8] |]  
[V:3] G8 |]  
[V:4] G,,8 |]  



